!!! OTL: Berkowitz428
!!! Chapter: 1
!!! Section: IV
!!! Page: 106
!!! Mode: 
!!! Encoder: DJB
**kern
*staff1
*I"Piano
=1-
*clefC4
*k[b-e-a-d-]
*A-:
*M3/4
4e-\
4c\
4An\
=2
16B-\LL
16c\
16d-\
16c\JJ
8B-\L
8A-\J
4G/
=3
4d-\
4.B-\
8G/
=4
16A-\LL
16G\
16A-\
16B-\JJ
8c\L
8d-\J
8e-\L
8en\J
=5
4f\
4.G/
8e-\
=6
4e-\
4F/
4d-\
=7
16c\LL
16B-\
16A-\
16B-\JJ
8E-/L
8A-/J
8B-/L
8G/J
=8
4G/
4A-\
4r
==
*-
